material-icons/material-design-light/scalable/applications/vk.svg

﻿<?xml version="1.0" encoding="utf-8"?>
<!DOCTYPE svg PUBLIC "-//W3C//DTD SVG 1.1//EN" "http://www.w3.org/Graphics/SVG/1.1/DTD/svg11.dtd">
<svg xmlns="http://www.w3.org/2000/svg" xmlns:xlink="http://www.w3.org/1999/xlink" version="1.1" baseProfile="full" width="24" height="24" viewBox="0 0 24.00 24.00" enable-background="new 0 0 24.00 24.00" xml:space="preserve">
	<path fill="#333333" fill-opacity="1" stroke-linejoin="round" d="M 19.5439,14.5995C 21.091,16.0354 21.4137,16.7282 21.4611,16.8191C 22.1024,17.878 20.7574,17.9634 20.7574,17.9634L 18.1772,18C 18.1772,18 17.6213,18.1058 16.896,17.6082C 15.932,16.9465 15.0208,15.2246 14.3117,15.4524C 13.5958,15.6801 13.6175,17.2272 13.6175,17.2272C 13.6175,17.2272 13.623,17.4495 13.4589,17.6244C 13.2786,17.8143 12.9342,17.7397 12.9342,17.7397L 11.7804,17.7397C 11.7804,17.7397 9.23271,18.0054 6.9915,15.6693C 4.55097,13.1271 2.38974,8.12807 2.38974,8.12807C 2.38974,8.12807 2.26772,7.82571 2.40059,7.66166C 2.5538,7.48133 2.96734,7.48675 2.96734,7.48675L 5.72649,7.4759C 5.72649,7.4759 5.98546,7.52336 6.17121,7.65623C 6.32442,7.77284 6.40984,7.98435 6.40984,7.98435C 6.40984,7.98435 6.85455,9.11241 7.44706,10.1293C 8.59682,12.121 9.13102,12.5549 9.52286,12.3434C 10.095,12.0316 9.92555,9.53137 9.92555,9.53137C 9.92555,9.53137 9.9364,8.62024 9.6354,8.21755C 9.40762,7.90571 8.97239,7.80944 8.78257,7.78911C 8.62258,7.76741 8.87748,7.40676 9.21102,7.2427C 9.70862,7 10.5831,6.98915 11.6204,7C 12.4257,7.00407 12.6589,7.0583 12.9708,7.13152C 13.9253,7.3593 13.6013,8.24874 13.6013,10.3734C 13.6013,11.0567 13.4792,12.0153 13.9673,12.3326C 14.1788,12.4654 14.6981,12.3542 15.9903,10.1564C 16.599,9.11784 17.06,7.89486 17.06,7.89486C 17.06,7.89486 17.1604,7.67793 17.3149,7.58166C 17.4736,7.48675 17.6905,7.51794 17.6905,7.51794L 20.5934,7.4976C 20.5934,7.4976 21.4665,7.39727 21.6103,7.78911C 21.758,8.20128 21.2808,9.16529 20.0944,10.7435C 18.1461,13.344 17.9291,13.1013 19.5439,14.5995 Z "/>
</svg>

<?xml version="1.0" encoding="UTF-8" standalone="no"?>
<svg id="svg2" xmlns:rdf="http://www.w3.org/1999/02/22-rdf-syntax-ns#" xmlns="http://www.w3.org/2000/svg" xml:space="preserve" height="24" width="24" version="1.1" enable-background="new 0 0 24.00 24.00" xmlns:cc="http://creativecommons.org/ns#" xmlns:dc="http://purl.org/dc/elements/1.1/" viewBox="0 0 24.00 24.00"><metadata id="metadata10"><rdf:RDF><cc:Work rdf:about=""><dc:format>image/svg+xml</dc:format><dc:type rdf:resource="http://purl.org/dc/dcmitype/StillImage"/><dc:title/></cc:Work></rdf:RDF></metadata><path id="path4" stroke-linejoin="round" d="m19.544 14.6c1.547 1.435 1.87 2.128 1.917 2.219 0.641 1.059-0.704 1.144-0.704 1.144l-2.58 0.037s-0.556 0.106-1.281-0.392c-0.964-0.662-1.875-2.383-2.584-2.156-0.716 0.228-0.694 1.775-0.694 1.775s0.005 0.223-0.159 0.397c-0.18 0.19-0.525 0.116-0.525 0.116h-1.154s-2.5473 0.265-4.7885-2.071c-2.4405-2.542-4.6018-7.5409-4.6018-7.5409s-0.122-0.3024 0.0109-0.4664c0.1532-0.1804 0.5667-0.1749 0.5667-0.1749l2.7592-0.0109s0.259 0.0475 0.4447 0.1803c0.1532 0.1166 0.2386 0.3282 0.2386 0.3282s0.4448 1.128 1.0373 2.1446c1.1497 1.992 1.6839 2.426 2.0758 2.214 0.5721-0.311 0.4027-2.8116 0.4027-2.8116s0.0108-0.9112-0.2902-1.3138c-0.2278-0.3119-0.663-0.4082-0.8528-0.4285-0.16-0.0217 0.0949-0.3823 0.4284-0.5464 0.4976-0.2427 1.372-0.2535 2.409-0.2427 0.806 0.0041 1.039 0.0583 1.351 0.1315 0.954 0.2278 0.63 1.1172 0.63 3.2415 0 0.684-0.122 1.642 0.366 1.96 0.212 0.132 0.731 0.021 2.023-2.177 0.609-1.0382 1.07-2.2611 1.07-2.2611s0.1-0.217 0.255-0.3132c0.159-0.0949 0.375-0.0638 0.375-0.0638l2.903-0.0203s0.873-0.1003 1.017 0.2915c0.148 0.4122-0.329 1.3762-1.516 2.9549-1.948 2.6-2.165 2.357-0.55 3.856z"/></svg>
